X:438
T:Stool of Repentance
R:Jig
N:The title refers to the "dunking chair" that was used to punish
N:people in some parts of the British Isles and New England.
M:6/8
L:1/8
K:A
(3e/f/g/|:"A"a2e c2e|agf edc|"Bm"aff f2e|"D"fag "E7"f2e |
"A"a2e c2e|agf edc|"D"d2e f2e|"E7"fac "A"B2A:|
|:"A"cAA eAA|cAc edc|"Bm"dBB fBB|dcd "E7"fed |
"A"cAA eAA|cAc edc|"D"d2e f2e|"E7"fac "A"B2A:|


